assets/spark/icons/AllDirection.svg

<svg viewBox="0 0 24 24" xmlns="http://www.w3.org/2000/svg">
    <path fill-rule="evenodd" clip-rule="evenodd" d="M11.2929 2.29265C11.6835 1.90212 12.3166 1.90212 12.7072 2.29265L15.4764 5.06188C15.8669 5.4524 15.8669 6.08557 15.4764 6.47609C15.0859 6.86662 14.4527 6.86662 14.0622 6.47609L13.0001 5.41397V10.9998H18.5856L17.5235 9.93764C17.133 9.54711 17.133 8.91395 17.5235 8.52342C17.914 8.1329 18.5472 8.1329 18.9377 8.52342L21.7069 11.2927C22.0975 11.6832 22.0975 12.3163 21.7069 12.7069L18.9377 15.4761C18.5472 15.8666 17.914 15.8666 17.5235 15.4761C17.133 15.0856 17.133 14.4524 17.5235 14.0619L18.5856 12.9998H13.0001V18.5855L14.0622 17.5234C14.4527 17.1329 15.0859 17.1329 15.4764 17.5234C15.8669 17.9139 15.8669 18.5471 15.4764 18.9376L12.7072 21.7069C12.3166 22.0974 11.6835 22.0974 11.2929 21.7069L8.52372 18.9376C8.13319 18.5471 8.13319 17.9139 8.52372 17.5234C8.91424 17.1329 9.54741 17.1329 9.93793 17.5234L11.0001 18.5855V12.9998H5.41421L6.47634 14.0619C6.86686 14.4524 6.86686 15.0856 6.47634 15.4761C6.08581 15.8666 5.45265 15.8666 5.06212 15.4761L2.29289 12.7069C1.90237 12.3163 1.90237 11.6832 2.29289 11.2927L5.06212 8.52342C5.45265 8.1329 6.08581 8.1329 6.47634 8.52342C6.86686 8.91395 6.86686 9.54711 6.47634 9.93764L5.41421 10.9998H11.0001V5.41397L9.93793 6.47609C9.54741 6.86662 8.91424 6.86662 8.52372 6.47609C8.13319 6.08557 8.13319 5.4524 8.52372 5.06188L11.2929 2.29265Z"/>
</svg>

<svg viewBox="0 0 24 24" xmlns="http://www.w3.org/2000/svg">
  <path d="m11.29,2.29c.39-.39,1.02-.39,1.41,0l2.77,2.77c.39.39.39,1.02,0,1.41-.39.39-1.02.39-1.41,0l-1.06-1.06v5.59h5.59l-1.06-1.06c-.39-.39-.39-1.02,0-1.41.39-.39,1.02-.39,1.41,0l2.77,2.77c.39.39.39,1.02,0,1.41l-2.77,2.77c-.39.39-1.02.39-1.41,0-.39-.39-.39-1.02,0-1.41l1.06-1.06h-5.59v5.59l1.06-1.06c.39-.39,1.02-.39,1.41,0,.39.39.39,1.02,0,1.41l-2.77,2.77c-.39.39-1.02.39-1.41,0l-2.77-2.77c-.39-.39-.39-1.02,0-1.41.39-.39,1.02-.39,1.41,0l1.06,1.06v-5.59h-5.59l1.06,1.06c.39.39.39,1.02,0,1.41-.39.39-1.02.39-1.41,0l-2.77-2.77c-.39-.39-.39-1.02,0-1.41l2.77-2.77c.39-.39,1.02-.39,1.41,0,.39.39.39,1.02,0,1.41l-1.06,1.06h5.59v-5.59l-1.06,1.06c-.39.39-1.02.39-1.41,0-.39-.39-.39-1.02,0-1.41l2.77-2.77Z"/>
</svg>
